X:1
T:Jesus Through Samaria
T:Jesus Through Samaria
T:John B. Hicks
T:John B. Hicks, 1901, alt.
T:Public Domain Courtesy of the Cyber Hymnal™
T:Public Domain Courtesy of the Cyber Hymnal™
C:John B. Hicks
Z:Public Domain
Z:Courtesy of the Cyber Hymnal™
%%score ( 1 2 ) ( 3 4 )
L:1/8
Q:1/4=80
M:6/8
K:Ab
V:1 treble 
V:2 treble 
V:3 bass 
V:4 bass 
V:1
 E | [Ac]>[A=B][Ac] [EA]>[EA][EA] | [FA]>[EG][DF] [CE]2 [CE] | %3
w: 1.~Our|Sav- ior once wan- dered on|earth as a man, Both|
w: 2.~Sore,|wea- ry, and thirst- y, He|came to a well, And|
w: 3.~Then|bro- ther, let’s sing this sweet|sto- ry, so true, Sal-|
 [EA]>[EA][EA] [EA][EG] ([EA]/[EB]/) | [Ac]>[EB]A !fermata![GB]2 E | %5
w: foot- sore and wea- ry to~Sa- *|ma- ri- a’s land; A|
w: there, to a wo- man, this *|sto- ry did tell; She|
w: va- tion thro’ Je- sus, for *|me and for you! Let|
 [Ac]>[A=B][Ac] ([EA]>[EA])[EA] | [FA]>[EG][DF] [CE]2 [Ec] | [Ae]>[Af][Ae] [Ae][Ac][EA] | %8
w: sto- ry He told, * most|won- drous- ly grand: Sal-|va- tion thro’ Je- sus for|
w: heard it with joy,~for * her|soul could be free, And|she this sal- va- tion thro’|
w: ev- ery glad heart~this * great|mes- sage now tell, The|same old sweet sto- ry, told|
 [Ac]<[Ac][EB] !fermata![EA]2 ||"^Refrain" [Ac] | [Ae]4 [A=d][Ae] | [Ac]3- [Ac]2 [EA] | %12
w: poor sin- ful man!||||
w: Je- sus did see!|We’ll|sing this sweet|song, * this|
w: there at the well!||||
 [FA]4 [EG][DF] | [CE]3- [CE]2 [CE] | [EA]>[EA][EA] [EA]>[EG][EA] | [GB]3- [GB]2 E | %16
w: ||||
w: glo- ri- ous|song, * Of|Je- sus who died on the|tree! * He|
w: ||||
 [Ac]4 [A=B][Ac] | [EA]3- [EA]2 [EA] | [FA]4 [EG][DF] | [CE]3- [CE]2 [Ec] | %20
w: ||||
w: died on the|tree * for|you and for|me! * O,|
w: ||||
 [Ae]>[Af][Ae] [Ae]<[Ac][EA] | [Ac]>[EA][EB] !fermata![EA]2 |] %22
w: ||
w: sing the sweet sto- ry: Sal-|va- tion is free!|
w: ||
V:2
 E | x6 | x6 | x6 | x2 A x E x | x6 | x6 | x6 | x5 || x | x6 | x6 | x6 | x6 | x6 | x5 E | x6 | x6 | %18
 x6 | x6 | x6 | x5 |] %22
V:3
 [A,C] | [A,E]>[A,=D][A,E] [A,C]>[A,C][A,C] | [D,D]>[D,D][D,A,] [A,,A,]2 A, | %3
w: ||* * * * We’ll|
 [A,C]>[A,C][A,C] [A,C][A,D] ([A,C]/[A,D]/) | [A,E]>[G,D][F,C] !fermata![E,E]2 [A,C] | %5
w: ||
 [A,E]>[A,=D][A,E] ([A,C]>[A,C])[A,C] | [D,D]>[D,D][D,A,] [A,,A,]2 A, | %7
w: |* * * * sing|
 [A,C]>[A,D][A,C] [A,C][A,E][A,C] | [E,E]<[E,E][E,D] !fermata![A,,C]2 || [A,C] | %10
w: ||this|
 [A,C][A,C][A,C] [A,C][A,=B,][A,C] | [A,E][A,E][A,E] [A,E]2 [A,C] | %12
w: sweet song, O this beau- ti-|ful song! We’ll sing this|
 [D,D][D,D][D,D] [D,D][D,D][D,A,] | [A,,A,][A,,A,][A,,A,] [A,,A,]2 A, | %14
w: sweet song, O, this glo- ri-|ous song, He died on|
 [A,C]>[A,C][A,C] [C,A,]>[B,,B,][A,,C] | [E,E]3- [E,E]2 [A,C] | [A,E][A,E][A,E] [A,E][A,=D][A,E] | %17
w: |* * the|cru- el cross, died on the|
 [A,C][A,C][A,C] [A,C]2 [A,C] | [D,D][D,D][D,D] [D,D][D,D][D,A,] | %19
w: tree, He died on Mount|Cal- v’ry, for you and for|
 [A,,A,][A,,A,][A,,A,] [A,,A,]2 A, | [A,C]>[A,D][A,C] [A,C]<[A,E][A,C] | %21
w: me! * * * *||
 [E,E]>[E,C][E,D] !fermata![A,,C]2 |] %22
w: |
V:4
 x | x6 | x5 A, | x6 | x6 | x6 | x5 A, | x6 | x5 || x | x6 | x6 | x6 | x5 A, | x6 | x6 | x6 | x6 | %18
 x6 | x5 A, | x6 | x5 |] %22

